X:1
T:Title
%%score 1 2 3
L:1/8
M:3/2
K:C
V:1 treble nm="Part_1"
V:2 treble-8 nm="Part_2"
V:3 treble-8 nm="Part_3"
V:1
 D6 C2 D2 E2 | F6 D2 C2 D2 | E6 G2 F2 E2 | G8 G4 | F8 F4 | E4 F6 E2 | G6 ^F2 F2 E2 | G8 z4 | %8
 G4 F2 D2 E4 | D6 E2 F4 | E4 G4 A2 F2 | E6 F2 D2 C2 | E8 z4 | F6 E2 G4 | F2 E2 C2 E2 D2 C2 | %15
 E6 D2 F4 | G4 A4 G2 A2- | AG E2 G2 F2 E2 F2 | G8 z4 | G4 A2 F2 E4 | D6 E2 F4 | %21
 _B2 A2 F2 G2 E2 D2 | F4 F4 D4 | C2 F2 E2 D2 F4 | E6 F2 G4 | F2 E4 F2 D2 C2 | E8 z4 | F6 D2 E2 F2 | %28
 D4 F6 E2 | E4 G6 A2 | F4 D2 F4 E2 | D4 C2 F4 E2 | F6 E2 F2 D2 | C8 C4 | C4 D2 F2 E2 D2 | %35
 F6 F2 F4 | E4 D2 G2 F2 EF | G6 F2 D4 | E2 F4 E2 D2 C2 | C6 B,2 B,2 A,2 | C8 C4 | E4 D2 G2 F2 E2 | %42
 G2 A4 G2 F4 | E6 D2 F4 | G6 F2 D2 E2 | F2 A4 G2 E2 F2 | G8 z4 | G4 E4 F4 | G4 G6 F2 | %49
 E4 D2 G2 F3 E | G4 z4 G2 F2 | D6 E2 F2 E2 | F4 E4 G4 | E6 D2 F4 | G2 F2 E2 F2 D2 C2 | E12 |] %56
V:2
 A4 c8 | A8 A4 | B4 c8 | d8 d4 | D8 D4 | A4 D6 E2 | F2 C4 E2 D4 | d8 A4 | e4 d4 c4 | d4 A4 B4 | %10
 c8 A4 | G6 B2 A2 G2 | B6 d2 c2 B2 | d4 d4 B2 G2 | A2 c4 B2 A4 | B8 c4 | d4 A4 B2 d2 | %17
 e4 c2 d4 c2 | d8 G4 | z2 E2 F2 D2 A4 | D8 D4 | G2 D4 E2 C4 | c4 A8 | A2 c2 B2 A2 c4 | B8 d4 | %25
 c4 B2 c2 A4 | B6 A2 B2 c2 | d4 A4 c4 | A4 d4 c4 | C8 C4 | D4 A4 z2 _B2- | B2 A2 F8 | A12 | F8 F4 | %34
 F4 D4 E2 C2 | c8 c4 | C4 G4 D4 | d8 B4 | B2 c2 d2 B4 A2 | A4 G4 ^F4 | G8 z4 | B12 | c4 F2 E2 D4 | %43
 d12 | B12 | c8 c4 | z4 G2 A2 F2 E2 | D4 C2 E2 D4 | d8 d4 | B4 G4 D4 | C4 E4 G2 A2 | B4 G2 E2 C4 | %52
 c12 | z4 c2 A2 c2 d2 | B2 c3 B B4 A2 | B12 |] %56
V:3
 F12 | D8 F4 | G4 A8 | G12 | d8 d4 | c4 d4 A2 G2 | B2 c4 G2 A4 | G8 c4- | c4 d2 B2 A4 | D12 | %10
 C8 D4 | E4 G4 F4 | E8 z4 | D8 E4 | F2 A4 G2 F4 | E4 G4 A4 | G4 F4 G4 | c6 _B2 A4 | G8 B4 | %19
 c6 d2 ^c2 B2 | d8 d4 | d4 A2 _B2 G4 | F12- | F4 G2 F4 A2 | G8 G4 | A4 G2 A2 F4 | E12 | D8 A4 | %28
 D8 A4 | G8 c4 | A4 D6 G2- | G2 F2 A8 | D12 | A12 | A8 G4 | F8 F4 | c4 B4 A4 | G8 G4 | %38
 G2 F2 D2 G4 A2 | F4 E2 C2 D4 | C12 | G8 A4 | c8 d4 | c4 G2 B2 A4 | G2 E4 D4 G2 | A4 c2 B2 A4 | %46
 G12- | G4 c4 d4 | G8 E2 D2 | G4 B2 G2 A4 | G12- | G12 | F4 C8 | c4 A2 F4 D2 | E2 A4 G2 F4 | E12 |] %56

